X:68
T:Devanny's Goat
M:C|
L:1/8
Q:120
R:Reel (Key of D)
K:Dmaj
"D"DF ~F2 AFBF | "G"d2 fe dBAF | "D"DF ~F2 BFAF | "A"E2 ED EGFE |
"D"DF ~F2 AFBF | "G"d2fe dBA2 | "D"fedB AFDF |1 "A"~E2 EF "D"D2 FE :|2 "A"~E2 EF "D"D2z2 |:
"D"faaf afdf | "G"afef dB~B2 | "D"ABde fede | "A"e2 ef edBd |
"D"Ad ~d2 fd ~d2 | "G"edfd edBd | "D"A2 dB AF DF |1 "A"~E2 EF "D"D2z2 :|2 "A"~E2 EF "D"D2 FE |]
